X:1
L:1/8
M:12/8
K:G
 B2 A |: GEG G2 A B2 d ege | d2 B BAB g2 B BAB | GEG G2 A B2 d ege |1 d2 B ABA G3 B2 A :|2 
 d2 B ABA G3 G3 |: gfg edd e2 f g2 e | d2 B BAB g2 B BAB | gfg edd e2 f g3 | BcB ABA G3 G3 :|
